icons/folder-mjml.svg

<!--
  - The MIT License (MIT)
  -
  - Copyright (c) 2015-2024 Elior "Mallowigi" Boukhobza
  -
  - Permission is hereby granted, free of charge, to any person obtaining a copy
  - of this software and associated documentation files (the "Software"), to deal
  - in the Software without restriction, including without limitation the rights
  - to use, copy, modify, merge, publish, distribute, sublicense, and/or sell
  - copies of the Software, and to permit persons to whom the Software is
  - furnished to do so, subject to the following conditions:
  -
  - The above copyright notice and this permission notice shall be included in all
  - copies or substantial portions of the Software.
  -
  - THE SOFTWARE IS PROVIDED "AS IS", WITHOUT WARRANTY OF ANY KIND, EXPRESS OR
  - IMPLIED, INCLUDING BUT NOT LIMITED TO THE WARRANTIES OF MERCHANTABILITY,
  - FITNESS FOR A PARTICULAR PURPOSE AND NONINFRINGEMENT. IN NO EVENT SHALL THE
  - AUTHORS OR COPYRIGHT HOLDERS BE LIABLE FOR ANY CLAIM, DAMAGES OR OTHER
  - LIABILITY, WHETHER IN AN ACTION OF CONTRACT, TORT OR OTHERWISE, ARISING FROM,
  - OUT OF OR IN CONNECTION WITH THE SOFTWARE OR THE USE OR OTHER DEALINGS IN THE
  - SOFTWARE.
  -
  -->

<svg version="1.1" xmlns="http://www.w3.org/2000/svg" viewBox="0 0 24 24" width="16px" height="16px"
     xml:space="preserve">
    <path d="m10 4h-6c-1.11 0-2 0.89-2 2v12c0 1.097 0.903 2 2 2h16c1.097 0 2-0.903 2-2v-10c0-1.11-0.9-2-2-2h-8l-2-2z"
          fill="#F26B00" fill-rule="nonzero" data-folderColor="MJML"/>
  <g transform="matrix(.78524 0 0 .78524 11.024 15.241)" fill="#FFE0B2" data-folderIconColor="MJML">
        <g transform="matrix(1.0221 0 0 1.0221 -1.3771 -1.2585) scale(0.13) translate(0 -30)">
            <path class="st0"
                  d="m14.5 0h57.3c8 0 14.5 6.5 14.5 14.5s-6.5 14.5-14.5 14.5h-57.3c-8 0-14.5-6.5-14.5-14.5s6.5-14.5 14.5-14.5z"/>
          <ellipse class="st0" cx="109.2" cy="14.5" rx="14.8" ry="14.5"/>
          <path class="st0"
                d="m52.6 43.3h56.6c8-.6 14.9 5.5 15.5 13.5s-5.5 14.9-13.5 15.5h-1.4-57.2c-8 .6-14.9-5.5-15.5-13.5s5.5-14.9 13.5-15.5h1.4z"/>
          <path class="st1"
                d="m14.8 43c8.2 0 14.8 6.6 14.8 14.8s-6.6 14.8-14.8 14.8c-8.2-.1-14.8-6.7-14.8-14.8 0-8.2 6.6-14.8 14.8-14.8z"/>
          <path class="st0"
                d="m14.5 85h57.3c8 0 14.5 6.5 14.5 14.5s-6.5 14.5-14.5 14.5h-57.3c-8 0-14.5-6.5-14.5-14.5s6.5-14.5 14.5-14.5z"/>
          <ellipse class="st0" cx="109.2" cy="99.5" rx="14.8" ry="14.5"/>
        </g>
    </g>
</svg>

<svg xmlns="http://www.w3.org/2000/svg" xml:space="preserve" viewBox="0 0 24 24"><path fill="#f26b00" d="M10 4H4c-1.11 0-2 .89-2 2v12c0 1.097.903 2 2 2h16c1.097 0 2-.903 2-2V8a2 2 0 0 0-2-2h-8z" data-folderColor="MJML"/><g fill="#ffe0b2" data-folderIconColor="MJML" transform="translate(9.943 11.123)scale(.10434)"><path d="M14.5 0h57.3c8 0 14.5 6.5 14.5 14.5S79.8 29 71.8 29H14.5C6.5 29 0 22.5 0 14.5S6.5 0 14.5 0" class="st0"/><ellipse cx="109.2" cy="14.5" class="st0" rx="14.8" ry="14.5"/><path d="M52.6 43.3h56.6c8-.6 14.9 5.5 15.5 13.5s-5.5 14.9-13.5 15.5H52.6c-8 .6-14.9-5.5-15.5-13.5s5.5-14.9 13.5-15.5H52z" class="st0"/><path d="M14.8 43c8.2 0 14.8 6.6 14.8 14.8S23 72.6 14.8 72.6C6.6 72.5 0 65.9 0 57.8 0 49.6 6.6 43 14.8 43" class="st1"/><path d="M14.5 85h57.3c8 0 14.5 6.5 14.5 14.5S79.8 114 71.8 114H14.5C6.5 114 0 107.5 0 99.5S6.5 85 14.5 85" class="st0"/><ellipse cx="109.2" cy="99.5" class="st0" rx="14.8" ry="14.5"/></g></svg>
